X:97
T:Captain MacDuff's Farewell
R:Reel
B:The Athole Collection
M:C|
L:1/8
K:E Minor
e|BEEF GABG|FdAd FDAF|BEEF GABa|gef^d e/e/e e:|
f|g/f/e Be gbeg|fdAd fafd|g/f/e Be gbeg|Bgf^d e/e/e e2|g/f/e Be gbeg|
fdAd FdAF|EGFA GBAc|Bgf^d e/e/e e||

